X:1
T:Title
%%score { ( 1 3 ) | ( 2 4 ) }
L:1/8
M:4/4
K:Bb
V:1 treble nm="Grand Piano"
V:3 treble 
V:2 bass 
V:4 bass 
V:1
 z4 z2[Q:1/4=100] F2 | [DB]2 [DB]2- [DB]F (3GFD | [F,EF]2 [A,EF]4 [DF]2 | %3
 [DG]2 [DG]2- [DG][DA] (3[DB][DA][DG] | A2 D4 D>D | d>d c>c B2 D>D | %6
 [DGB]>[DGB] [C^FA]>[CFA] [B,G]2 [=B,=FG]2 | [C=Ec]>[Ed] [Ec]>[DGB] [CFA]2 [B,EG]2 | c6 z2 | %9
 [DB]2 [DB]2- [DB]F (3GFD |[M:3/4] [F,EF]2 [A,EF]4 |[M:1/4] [DF]2 | %12
[M:4/4] [DG]2 [DG]2- [DG][DA] (3[DB][DA][DG] | [Dd]2 [Dd]4 [^Fd]>[Fd] | %14
[M:3/4] [Ge]>[Ge] [Gd]>[Gd] [Gc]2 |[M:1/4] G>G |[M:4/4] d>d c>c B2 [FA]G | F2 B2- BB/B/- B/A/B | %18
[M:3/4] c4 [B,DB]2 |[M:1/4] F2 |[M:4/4] d6 z2 | B6[K:bass][K:treble] z2 | z z/ D/ D>D D>c B>A | %23
 G6 z2 | B2 [FB]2 c2 F>F | c2 [Fc]2[K:bass][K:treble] z4 | [Fd]2 [Fd]2 [Fe]2 F>F | %27
 e2 [Fe]2[K:bass][K:treble] z4 | [Gg]6 z2 | [Ff]6 z2 | [Fe]6 z2 | [Fd]6 z2 | [FB]6 z2 | B6 z2 | %34
[M:19/16] f/-f/-f/-f/-f/-f/-f-<f z/ z/ z/ z/ z/ z/ z/ z |[M:3/4] [DFB]6 |] %36
V:2
 z4 z2 F,2 | [B,,F,]2 [B,,F,]2- [B,,F,]F, (3G,F,D, | C,2 F,,4 [B,,B,]2 | %3
 [B,,B,]2 [B,,B,]2- [B,,B,][A,,^F,] (3[G,,G,][A,,F,][B,,G,] | [D,^F,D]2 [F,A,]4 [F,B,]>[F,B,] | %5
 [^F,A,D]>[F,A,D] [F,A,D]>[F,A,D] [G,D]2 D,>D, | D,>D, D,>D, E,2 D,2 | %7
 C,>[C,B,] [C,G,]>C, C,2 C,2 | [F,A,F]2 [G,B,]2 [F,A,]2 F,2 | %9
 [B,,F,]2 [B,,F,]2- [B,,F,]F, (3G,F,D, |[M:3/4] C,2 F,,4 |[M:1/4] [B,,B,]2 | %12
[M:4/4] [B,,B,]2 [B,,B,]2- [B,,B,][A,,^F,] (3[G,,G,][A,,F,][B,,G,] | %13
 [D,^F,]2 [D,F,]4 [D,A,]>[D,C] |[M:3/4] [C,C]>[C,C] [D,=B,]>[D,B,] [E,C]2 | %15
[M:1/4] [E,B,E]>[=E,B,_D] |[M:4/4] [F,B,D]>[F,B,F] [F,A,E]>[F,A,E] [G,B,D]2 [D,B,][E,B,E] | %17
 [F,B,D]2 [F,B,D]2- [F,B,D][F,D]/[F,D]/- [F,D]/[F,C]/[F,D] |[M:3/4] [F,,A,E]4 B,,2 | %19
[M:1/4][K:treble] D2 |[M:4/4] F6[K:bass] z2 | D6 z2 | z z/ [D,C]/ [D,C]>[D,C] [D,C]2 z2 | %23
 z z/ [G,B,]/ [G,B,]>[G,B,] [G,B,]2 [A,C]>[A,C] | [B,D]2 [D,B,]2 [F,A,F]2 [F,A,]>[F,A,] | %25
 .[F,A,F]2 .[D,A,]2 [B,,B,]2 [B,,B,]>[B,,B,] | [B,,B,]2 [B,,B,]2 [C,A,]2 [F,A,]>[F,A,] | %27
 .[F,A,F]2 .[D,C]2 [D,B,]2 [D,B,]2 | [E,B,]2 E,2 E,2 E,2 | [F,D]2 B,,2 B,,2 B,,2 | %30
 [C,A,]2 F,2 A,2 A,2 | B,2 B,,2 B,,>B,, B,,>B,, | %32
 B,,>B,, D,>F, B,>[K:treble][G,_D^F] [G,DF]>[G,DF] | ^F6 z2 | %34
[M:19/16] [F,DF]>[F,D][F,D]>[F,D]F,[C,C]3/2[F,B,]3/2F,3/2 |[M:3/4] B,,6 |] %36
V:3
 x8 | x8 | x8 | x8 | x8 | x8 | x8 | x8 | z2 =E2 _E2 F2 | x8 |[M:3/4] x6 |[M:1/4] x2 |[M:4/4] x8 | %13
 x8 |[M:3/4] x6 |[M:1/4] x2 |[M:4/4] x8 | x8 |[M:3/4] x6 |[M:1/4] x2 | %20
[M:4/4] z z/ B,/ B,>B, B,2 F2 | z z/[K:bass] F,/ F,>F, F,>[K:treble]B A>G | ^F6 z2 | %23
 z z/ D/ D>D D2 F>F | x8 | z E, z[K:bass] C,[K:treble] [Fd]2 [DF]>[DF] | x8 | %27
 z E, z[K:bass] C,[K:treble] [Ff]2 [_AB]2 | z2 B,2 B,2 [EGB]2 | z2 D2 D2 [DFB]2 | z2 A,2 C2 [CF]2 | %31
 z2 B,2 B,>[DFB] [DFB]>[DFB] | D>D D>D D>B B>B | z z/ _D/ D>D D>B B>B | %34
[M:19/16] z/ z B<BB/C[Ge]3/2[Fd]3/2[EFc]3/2 |[M:3/4] x6 |] %36
V:4
 x8 | x8 | x8 | x8 | x8 | x8 | x8 | x8 | x8 | x8 |[M:3/4] x6 |[M:1/4] x2 |[M:4/4] x8 | x8 | %14
[M:3/4] x6 |[M:1/4] x2 |[M:4/4] x8 | x8 |[M:3/4] x6 |[M:1/4][K:treble] x2 | %20
[M:4/4] z z/[K:bass] B,,/ D,>F, z2 D2 | z z/ B,,/ B,,>B,, B,,2 z2 | x8 | x8 | x8 | x8 | x8 | x8 | %28
 x8 | x8 | x8 | x8 | x11/2[K:treble] x5/2 | [^F,_D]>^F,, B,,>_D, F,>[F,D^F] [F,DF]>[F,DF] | %34
[M:19/16] x19/2 |[M:3/4] x6 |] %36

